build/Karasa-Jaga/scalable/devices/audio-input-microphone-symbolic.svg

<svg height="16.001" width="16" xmlns="http://www.w3.org/2000/svg"><g fill="#bebebe"><path d="m8.0312501.88902953c-2.0600601 0-3.725602 1.61757707-3.8125 3.65624987h-.375v1.34375h.5625c.00432.013215.024175.019051.03125.03125h7.2187499c.0031-.00904-.003-.022181 0-.03125.0017-.00412.02951.00412.03125 0h.46875v-1.34375h-.3125c-.08556-2.0399079-1.751552-3.65624987-3.8124999-3.65624987zm0 .75195297c1.6674075 0 2.9914329 1.2877401 3.0605469 2.9355469a.75276231.75276231 0 0 0 .3125.5800781v.011719h-6.765625a.75276231.75276231 0 0 0 .3320312-.5917971c.0701929-1.6467619 1.3944978-2.9355469 3.0605469-2.9355469z"/><path d="m4.765625 6.0494701c.2617122.5176435.5753215 1.0448893.875 1.5625l-.125.03125.34375.71875.71875 6.4062499c.08963.2179.331615.227985.5.34375h1.90625c.246214-.0026.337413-.231972.5-.34375l.71875-6.4062499.34375-.71875-.1875-.03125c.334922-.5015177.60831-1.0279411.875-1.5625zm1.0097656.5917969h4.4511724c-.119518.212647-.225842.4426232-.3593755.6425781a.5916256.5916256 0 0 0 -.0605469.5351562l-.1367187.2871094a.5916256.5916256 0 0 0 -.0546875.1894532l-.6953125 6.1972651c-.00516.0063-.025323.02261-.029297.02734h-1.6855468c-.019392-.0078-.048012-.02592-.0625-.03125l-.6953125-6.1933551a.5916256.5916256 0 0 0 -.0546875-.1894532l-.1757812-.3671875a.5916256.5916256 0 0 0 -.0644531-.4238281c-.1326938-.2291912-.2474611-.4477127-.3769532-.6738281z"/></g></svg>

<?xml version="1.0" encoding="UTF-8" standalone="no"?>
<!-- Created with Inkscape (http://www.inkscape.org/) -->

<svg
   xmlns:dc="http://purl.org/dc/elements/1.1/"
   xmlns:cc="http://creativecommons.org/ns#"
   xmlns:rdf="http://www.w3.org/1999/02/22-rdf-syntax-ns#"
   xmlns:svg="http://www.w3.org/2000/svg"
   xmlns="http://www.w3.org/2000/svg"
   xmlns:sodipodi="http://sodipodi.sourceforge.net/DTD/sodipodi-0.dtd"
   xmlns:inkscape="http://www.inkscape.org/namespaces/inkscape"
   id="svg7384"
   height="16.001"
   width="16"
   version="1.1"
   inkscape:version="0.92.2 (unknown)"
   sodipodi:docname="audio-input-microphone-symbolic.svg">
  <sodipodi:namedview
     pagecolor="#ffffff"
     bordercolor="#666666"
     borderopacity="1"
     objecttolerance="10"
     gridtolerance="10"
     guidetolerance="10"
     inkscape:pageopacity="0"
     inkscape:pageshadow="2"
     inkscape:window-width="1366"
     inkscape:window-height="716"
     id="namedview4772"
     showgrid="false"
     inkscape:zoom="29.498157"
     inkscape:cx="8.0003424"
     inkscape:cy="7.7319435"
     inkscape:window-x="0"
     inkscape:window-y="27"
     inkscape:window-maximized="1"
     inkscape:current-layer="svg7384" />
  <metadata
     id="metadata90">
    <rdf:RDF>
      <cc:Work
         rdf:about="">
        <dc:format>image/svg+xml</dc:format>
        <dc:type
           rdf:resource="http://purl.org/dc/dcmitype/StillImage" />
        <dc:title>Gnome Symbolic Icon Theme</dc:title>
      </cc:Work>
    </rdf:RDF>
  </metadata>
  <title
     id="title9167">Gnome Symbolic Icon Theme</title>
  <defs
     id="defs7386">
    <clipPath
       id="clipPath6810-7"
       clipPathUnits="userSpaceOnUse">
      <rect
         id="rect6812-2"
         style="stroke-linejoin:round;color:#bebebe;stroke:#fff;stroke-linecap:round;stroke-width:2;fill:none"
         height="11"
         width="14"
         y="281"
         x="21" />
    </clipPath>
  </defs>
  <path
     style="fill:#bebebe;fill-opacity:1;stroke:none"
     d="m 8.0312501,0.88902953 c -2.0600601,0 -3.725602,1.61757707 -3.8125,3.65624987 h -0.375 v 1.34375 h 0.5625 c 0.00432,0.013215 0.024175,0.019051 0.03125,0.03125 H 11.65625 c 0.0031,-0.00904 -0.003,-0.022181 0,-0.03125 0.0017,-0.00412 0.02951,0.00412 0.03125,0 h 0.46875 v -1.34375 h -0.3125 C 11.75819,2.5053715 10.092198,0.88902953 8.0312501,0.88902953 Z m 0,0.75195297 c 1.6674075,0 2.9914329,1.2877401 3.0605469,2.9355469 a 0.75276231,0.75276231 0 0 0 0.3125,0.5800781 v 0.011719 H 4.638672 A 0.75276231,0.75276231 0 0 0 4.9707032,4.5765294 C 5.0408961,2.9297675 6.365201,1.6409825 8.0312501,1.6409825 Z"
     id="path4868"
     inkscape:connector-curvature="0" />
  <path
     style="fill:#bebebe;fill-opacity:1;stroke:none"
     d="m 4.765625,6.0494701 c 0.2617122,0.5176435 0.5753215,1.0448893 0.875,1.5625 l -0.125,0.03125 0.34375,0.71875 0.71875,6.4062499 c 0.08963,0.2179 0.331615,0.227985 0.5,0.34375 h 1.90625 c 0.246214,-0.0026 0.337413,-0.231972 0.5,-0.34375 l 0.71875,-6.4062499 0.34375,-0.71875 -0.1875,-0.03125 c 0.334922,-0.5015177 0.60831,-1.0279411 0.875,-1.5625 z M 5.7753906,6.641267 H 10.226563 C 10.107045,6.853914 10.000721,7.0838902 9.8671875,7.2838451 A 0.5916256,0.5916256 0 0 0 9.8066406,7.8190013 L 9.6699219,8.1061107 A 0.5916256,0.5916256 0 0 0 9.6152344,8.2955639 L 8.9199219,14.492829 c -0.00516,0.0063 -0.025323,0.02261 -0.029297,0.02734 H 7.2050781 c -0.019392,-0.0078 -0.048012,-0.02592 -0.0625,-0.03125 L 6.4472656,8.2955639 A 0.5916256,0.5916256 0 0 0 6.3925781,8.1061107 L 6.2167969,7.7389232 A 0.5916256,0.5916256 0 0 0 6.1523438,7.3150951 C 6.01965,7.0859039 5.9048827,6.8673824 5.7753906,6.641267 Z"
     id="path815"
     inkscape:connector-curvature="0" />
</svg>
